packages/symbols/svgs/solid/calendar-plus-solid.svg

<svg width="16" height="16" viewBox="0 0 16 16" xmlns="http://www.w3.org/2000/svg"><g clip-path="url(#a)"><path fill-rule="evenodd" clip-rule="evenodd" d="M13 2h2a1 1 0 0 1 1 1v2H0V3a1 1 0 0 1 1-1h2V0h2v2h6V0h2v2ZM0 15V6h16v9c0 .6-.4 1-1 1H1c-.6 0-1-.4-1-1Zm9-3h2v-2H9V8H7v2H5v2h2v2h2v-2Z"/></g><defs><clipPath id="a"><path fill="#fff" d="M0 0h16v16H0z"/></clipPath></defs></svg>

<svg width="16" height="16" viewBox="0 0 16 16" fill="none" xmlns="http://www.w3.org/2000/svg">
<g clip-path="url(#clip0_218_107)">
<path fill-rule="evenodd" clip-rule="evenodd" d="M13 2L15 2C15.552 2 16 2.448 16 3L16 5L-8.74228e-07 5L-5.24537e-07 3C-4.28022e-07 2.448 0.448 2 1 2L3 2L3 2.79753e-06L5 3.14722e-06L5 2L11 2L11 2.27299e-06L13 2.27299e-06L13 2ZM0 15L-1.04907e-06 6L16 6L16 15C16 15.6 15.6 16 15 16L1 16C0.4 16 0 15.6 0 15ZM9 12L11 12L11 10L9 10L9 8L7 8L7 10L5 10L5 12L7 12L7 14L9 14L9 12Z" fill="black"/>
</g>
<defs>
<clipPath id="clip0_218_107">
<rect width="16" height="16" fill="white"/>
</clipPath>
</defs>
</svg>
